!!!COM: Giovannelli, Ruggero
!!!CDT: ~1560///-1625/01/07/
!!!OTL: O quam inanes
!!!OTL2: O come vaneggiate
!!!ONM: No. 11
!!!SMS: Musica tolta da i madrigali di Claudio Monteverdi, e d'altri autori, e fatta spirituale
!!!PPR: A. Coppini, ed.
!!!PPP: Milan
!!!PDT: 1607
!!!URL: http://www.jpj.dk/coppini.htm
!!!AIN: contrafacta
**kern	**kern	**kern	**kern	**kern
*staff5	*staff4	*staff3	*staff2	*staff1
*Ivox	*Ivox	*Ivox	*Ivox	*Ivox
!basso	!tenore	!alto	!quinto	!canto
*clefF4	*clefGv2	*clefGv2	*clefG2	*clefG2
*k[b-]	*k[b-]	*k[b-]	*k[b-]	*k[b-]
*M4/4	*M4/4	*M4/4	*M4/4	*M4/4
*MM120	*MM120	*MM120	*MM120	*MM120
=1-	=1-	=1-	=1-	=1-
1r	2.g\	1r	2.b-\	2r
.	.	.	.	[2dd\
.	8f\	.	8a/	.
.	8e\	.	8g/	.
=2	=2	=2	=2	=2
1r	4d\	1r	4f/	4dd\]
.	4e\	.	4g/	8cc\
.	.	.	.	8b-\
.	4f\	.	4a/	4a/
.	8e\L	.	8g/L	4b-\
.	8d\J	.	8f/J	.
=3	=3	=3	=3	=3
1r	4c\	1r	4e/	4cc\
.	4d\	.	4f/	8b-/L
.	.	.	.	8a/J
.	2e-\	.	[2g/	4g/
.	.	.	.	4a/
=4	=4	=4	=4	=4
1r	1d	2r	2g/]	2b-\
.	.	2d\	4f#/	2a/
.	.	.	4a/	.
=5	=5	=5	=5	=5
1r	4r	4.g\	4.b-\	4r
.	4G/	.	.	4dd\
.	.	8g\	8b-\	.
.	4.d\	4.f\	4.a/	4.ff\
.	8d\	8f\	8f/	8dd\
=6	=6	=6	=6	=6
1r	4.c\	4e\	4.g/	4ee\
.	.	4e\	.	4cc\
.	8c\	.	8e/	.
.	4B-\	2d\	[2f/	4dd\
.	4B-\	.	.	4b-\
=7	=7	=7	=7	=7
1r	2A/	4a\	4f/]	4cc\
.	.	4a\	8e/L	2dd\
.	.	.	8d/J	.
.	4A/	4.a\	2e/	.
.	4A/	.	.	4cc#\
.	.	8g\	.	.
=8	=8	=8	=8	=8
1r	4.B-\	4f\	4d/	4dd\
.	.	4f\	2d/	4dd\
.	8A/	.	.	.
.	4G/	8g\L	.	4.gg\
.	.	8f\J	.	.
.	4G/	8e\L	[4g/	.
.	.	8d\J	.	8ff\
=9	=9	=9	=9	=9
1r	1A	4c\	8g/]	4ee\
.	.	.	8g/	.
.	.	4d\	8f/	4dd\
.	.	.	8f/	.
.	.	2e\	2e/	2cc#\
=10	=10	=10	=10	=10
2r	1d	1f	1d	2dd\
[2d\	.	.	.	[2ff\
=11	=11	=11	=11	=11
4d\]	1r	2.a\	4r	4ff\]
8c\	.	.	2cc\	8ee\
8B-\	.	.	.	8dd\
4A\	.	.	.	4cc\
4B-\	.	8g\	8b-\	4dd\
.	.	8f\	8a/	.
=12	=12	=12	=12	=12
4c\	1r	4e-\	4g/	4ee-\
8B-\L	.	4f\	4a/	8dd\L
8A\J	.	.	.	8cc\J
4G\	.	4g\	4b-\	4b-\
4A\	.	8f\L	8a/L	4cc\
.	.	8e-\J	8g/J	.
=13	=13	=13	=13	=13
1B-	1r	4d\	2.f/	[1dd
.	.	4e\	.	.
.	.	[2f\	.	.
.	.	.	4g/	.
=14	=14	=14	=14	=14
1A	2r	2f\]	2a/	2dd\]
.	2A/	4e\	2a/	2cc#\
.	.	4e\	.	.
=15	=15	=15	=15	=15
2D\	4.d\	4.f\	4r	1r
.	.	.	4a/	.
.	8c\	8e\	.	.
4.G\	4B-\	4d\	4b-\	.
.	4B-\	4d\	4g/	.
8G\	.	.	.	.
=16	=16	=16	=16	=16
4F\	4A/	2.d\	4a/	4r
4F\	4A/	.	4f/	4dd\
4E-\	2G/	.	4b-\	4.gg\
4E-\	.	4c\	4cc\	.
.	.	.	.	8gg\
=17	=17	=17	=17	=17
2D\	4A/	2d\	2f/	4.ff\
.	4A/	.	.	.
.	.	.	.	8ee\
4D\	4.B-\	2d\	4f/	4.dd\
4D\	.	.	4f/	.
.	8A/	.	.	8cc\
=18	=18	=18	=18	=18
4.E-\	2G/	4r	4.g/	4b-\
.	.	4B-\	.	8b-\
8D\	.	.	8f/	8b-\
4C/	2G/	4.c\	4e-/	4ee-\
4C/	.	.	4g/	4ee-\
.	.	8B-\	.	.
=19	=19	=19	=19	=19
1D	1d	4A/	4f#/	4dd\
.	.	4B-\	2g/	4dd\
.	.	2A/	.	2dd\
.	.	.	4f#/	.
=20	=20	=20	=20	=20
1G	2d\	2G/	2g/	2dd\
.	2d\	2G/	[2b-\	4r
.	.	.	.	[4gg\
=21	=21	=21	=21	=21
1r	2d\	2B-\	4b-\]	4gg\]
.	.	.	2dd\	2ff\
.	2g\	2c\	.	.
.	.	.	4cc\	[4ee-\
=22	=22	=22	=22	=22
1r	2f#\	2d\	2a/	4ee-\]
.	.	.	.	2dd\
.	2g\	2e-\	2g/	.
.	.	.	.	4cc\
=23	=23	=23	=23	=23
2r	2f#\	2d\	2a/	2dd\
2D\	4f#\	2d\	4a/	2dd\
.	4f#\	.	[4a/	.
=24	=24	=24	=24	=24
2F\	2a\	2A/	4a/]	1r
.	.	.	2cc\	.
2G\	2g\	2B-\	.	.
.	.	.	[4b-\	.
=25	=25	=25	=25	=25
2A\	2e\	2c\	4b-\]	1r
.	.	.	2a/	.
2B-\	2d\	4d\	.	.
.	.	4d\	4g/	.
=26	=26	=26	=26	=26
2A\	2e\	2c#\	2a/	2r
4A\	2e\	2c#\	4a/	4r
4A\	.	.	4a/	4ee\
=27	=27	=27	=27	=27
4.d\	2r	2r	4a/	4.ff\
.	.	.	4a/	.
8d\	.	.	.	8ff\
4.c#\	4r	4r	4a/	4.ee\
.	4e\	4A/	4a/	.
8c#\	.	.	.	8ee\
=28	=28	=28	=28	=28
2d\	4.f\	4.d\	1a	4dd\
.	.	.	.	4dd\
.	8f\	8d\	.	.
2A\	4e\	4.c#\	.	2r
.	4e\	.	.	.
.	.	8c#\	.	.
=29	=29	=29	=29	=29
4d\	8d\L	2d\	2a/	4ff\
.	8e\J	.	.	.
4d\	8f\L	.	.	4ff\
.	8g\J	.	.	.
4c\	4a\	2A/	4a/	4ee\
8c\	4a\	.	4e/	8ee\
8c\	.	.	.	8ee\
=30	=30	=30	=30	=30
2B-\	1r	4d\	4f/	4dd\
.	.	4d\	8f/	4dd\
.	.	.	8g/	.
2F\	.	4c\	2a/	4ff\
.	.	8c\	.	8ff\
.	.	8c\	.	8ee\
=31	=31	=31	=31	=31
4G\	2r	2B-\	4d/	8dd\L
.	.	.	.	8cc\J
8G\	.	.	4b-\	8b-/L
8F\	.	.	.	8a/J
4E-\	4G/	2B-\	8b-\	4g/
.	.	.	8a/	.
4E-\	8G/	.	[4g/	4g/
.	8A/	.	.	.
=32	=32	=32	=32	=32
1D	4B-\	4d\	4g/]	[1dd
.	4A/	8d\	2f/	.
.	.	8c\	.	.
.	2d\	4B-\	.	.
.	.	4B-\	[4g/	.
=33	=33	=33	=33	=33
1D	[1d	1A	4g/]	1dd]
.	.	.	8f#/L	.
.	.	.	8e/J	.
.	.	.	2f#/	.
=34	=34	=34	=34	=34
1r	1d]	1G	1g	1dd
=35	=35	=35	=35	=35
1G	1d	1r	2r	1g
.	.	.	2b-\	.
=36	=36	=36	=36	=36
2G\	2d\	1r	2b-\	2g/
2F#\	2d\	.	2a/	2a/
=37	=37	=37	=37	=37
1G	1d	1r	1g	1b-
=38	=38	=38	=38	=38
2A\	1c#	1r	2e/	2a/
4r	.	.	4r	4r
4A\	.	.	4a/	4ee\
=39	=39	=39	=39	=39
4.d\	2r	2r	4a/	4.ff\
.	.	.	4f/	.
8d\	.	.	.	8ff\
4.c\	4r	4r	4g/	4.ee\
.	4e\	4A/	4a/	.
8c\	.	.	.	8ee\
=40	=40	=40	=40	=40
2B-\	4.f\	4.d\	2b-\	4dd\
.	.	.	.	4dd\
.	8f\	8d\	.	.
4F\	4f\	4.c\	2a/	2r
4F\	4f\	.	.	.
.	.	8c\	.	.
=41	=41	=41	=41	=41
2G\	2d\	2B-\	4r	4r
.	.	.	4b-\	4gg\
2A\	2c\	4F/	4a/	4ff\
.	.	4F/	4cc\	4ee\
=42	=42	=42	=42	=42
2B-\	1r	2G/	4b-\	4dd\
.	.	.	4b-\	4gg\
2c\	.	2A/	4a/	4ff\
.	.	.	4cc\	4ee\
=43	=43	=43	=43	=43
2d\	1r	2B-\	4b-\	4dd\
.	.	.	4b-\	4gg\
2A\	.	2c\	4a/	4ff\
.	.	.	4cc\	4ee\
=44	=44	=44	=44	=44
2B-\	1r	2d\	4b-\	4dd\
.	.	.	4b-\	4dd\
2c\	.	2A/	4a/	4cc\
.	.	.	4a/	4cc\
=45	=45	=45	=45	=45
2d\	1r	4.B-\	4f/	4b-\
.	.	.	2g/	4b-\
.	.	8c\	.	.
2D\	.	2d\	.	2a/
.	.	.	4f#/	.
=46	=46	=46	=46	=46
1r	2r	2G/	2g/	2g/
.	2G/	2d\	2b-\	2g/
=47	=47	=47	=47	=47
1r	2G/	2d\	2b-\	2g/
.	2F#/	2d\	2a/	2a/
=48	=48	=48	=48	=48
1r	1G	1d	1g	1b-
=49	=49	=49	=49	=49
1r	1A	1c#	1e	1a
=50	=50	=50	=50	=50
1D	2r	2r	1a	2r
.	2A/	2f\	.	2dd\
=51	=51	=51	=51	=51
2D\	2A/	2f\	2a/	2dd\
2C#/	2A/	2e\	2a/	2ee\
=52	=52	=52	=52	=52
1D	1A	1d	1a	1ff
=53	=53	=53	=53	=53
2A\	1A	1c#	2a/	2ee\
4r	.	.	2a/	4r
4A\	.	.	.	4ee\
=54	=54	=54	=54	=54
4.d\	2r	2r	4a/	4.ff\
.	.	.	4f/	.
8d\	.	.	.	8ff\
4.c\	4r	4r	4g/	4.ee\
.	4A/	4e\	4a/	.
8c\	.	.	.	8ee\
=55	=55	=55	=55	=55
2B-\	4.d\	4.f\	2b-\	4dd\
.	.	.	.	4dd\
.	8d\	8f\	.	.
4F\	4.c\	4f\	2a/	2r
4F\	.	4f\	.	.
.	8c\	.	.	.
=56	=56	=56	=56	=56
2G\	2B-\	2d\	4r	4r
.	.	.	4b-\	4gg\
2A\	4F/	2c\	4a/	4ff\
.	4F/	.	4cc\	4ee\
=57	=57	=57	=57	=57
2B-\	2G/	1r	4b-\	4dd\
.	.	.	4b-\	4gg\
2c\	2A/	.	4a/	4ff\
.	.	.	4cc\	4ee\
=58	=58	=58	=58	=58
2d\	2B-\	1r	4b-\	4dd\
.	.	.	4b-\	4gg\
2A\	2c\	.	4a/	4ff\
.	.	.	4cc\	4ee\
=59	=59	=59	=59	=59
2B-\	2d\	4r	4b-\	4dd\
.	.	4g\	4b-\	2dd\
2c\	2A/	4f\	4a/	.
.	.	4e\	4g/	[4cc\
=60	=60	=60	=60	=60
1d	4.B-\	4d\	4f/	4cc\]
.	.	4G/	4g/	2b-\
.	8c\	.	.	.
.	2d\	4B-\	4g/	.
.	.	4c\	4a/	[4a/
=61	=61	=61	=61	=61
1D	[1d	4d\	4f#/	4a/]
.	.	4B-\	4g/	2g/
.	.	2A/	2a/	.
.	.	.	.	4f#/
=62	=62	=62	=62	=62
1G;	1d;]	1G;	1bn;	1g;
==	==	==	==	==
*-	*-	*-	*-	*-
!!!ENC: Craig Stuart Sapp
!!!END: 2004/12/10/
